static/img/kroki/2ffd3d1475b76024b654f0097e603ca0.svg

<?xml version="1.0" encoding="us-ascii" standalone="no"?><svg xmlns="http://www.w3.org/2000/svg" xmlns:xlink="http://www.w3.org/1999/xlink" contentStyleType="text/css" height="374px" preserveAspectRatio="none" style="width:402px;height:374px;" version="1.1" viewBox="0 0 402 374" width="402px" zoomAndPan="magnify"><defs/><g><!--class aws_resource--><g id="elem_aws_resource"><rect codeLine="23" fill="#3D176E" height="39.7891" id="aws_resource" rx="2.5" ry="2.5" style="stroke:#000D19;stroke-width:0.5;" width="155" x="7" y="167.79"/><ellipse cx="22" cy="187.6845" fill="#ADD1B2" rx="11" ry="11" style="stroke:#181818;stroke-width:1.0;"/><path d="M24.9688,193.3252 Q24.3906,193.622 23.75,193.7627 Q23.1094,193.9189 22.4063,193.9189 Q19.9063,193.9189 18.5781,192.2783 Q17.2656,190.622 17.2656,187.497 Q17.2656,184.372 18.5781,182.7158 Q19.9063,181.0595 22.4063,181.0595 Q23.1094,181.0595 23.75,181.2158 Q24.4063,181.372 24.9688,181.6689 L24.9688,184.3877 Q24.3438,183.8095 23.75,183.5439 Q23.1563,183.2627 22.5313,183.2627 Q21.1875,183.2627 20.5,184.3408 Q19.8125,185.4033 19.8125,187.497 Q19.8125,189.5908 20.5,190.6689 Q21.1875,191.7314 22.5313,191.7314 Q23.1563,191.7314 23.75,191.4658 Q24.3438,191.1845 24.9688,190.6064 L24.9688,193.3252 Z " fill="#000000"/><text fill="#D9B8FF" font-family="Helvetica" font-size="17" lengthAdjust="spacing" textLength="113" x="41" y="193.5698">aws_resource</text></g><!--class aws_s3_account_settings--><g id="elem_aws_s3_account_settings"><rect codeLine="26" fill="#3D176E" height="39.7891" id="aws_s3_account_settings" rx="2.5" ry="2.5" style="stroke:#000D19;stroke-width:0.5;" width="252" x="63.5" y="328.58"/><ellipse cx="78.5" cy="348.4745" fill="#ADD1B2" rx="11" ry="11" style="stroke:#181818;stroke-width:1.0;"/><path d="M81.4688,354.1152 Q80.8906,354.412 80.25,354.5527 Q79.6094,354.7089 78.9063,354.7089 Q76.4063,354.7089 75.0781,353.0683 Q73.7656,351.412 73.7656,348.287 Q73.7656,345.162 75.0781,343.5058 Q76.4063,341.8495 78.9063,341.8495 Q79.6094,341.8495 80.25,342.0058 Q80.9063,342.162 81.4688,342.4589 L81.4688,345.1777 Q80.8438,344.5995 80.25,344.3339 Q79.6563,344.0527 79.0313,344.0527 Q77.6875,344.0527 77,345.1308 Q76.3125,346.1933 76.3125,348.287 Q76.3125,350.3808 77,351.4589 Q77.6875,352.5214 79.0313,352.5214 Q79.6563,352.5214 80.25,352.2558 Q80.8438,351.9745 81.4688,351.3964 L81.4688,354.1152 Z " fill="#000000"/><text fill="#D9B8FF" font-family="Helvetica" font-size="17" lengthAdjust="spacing" textLength="210" x="97.5" y="354.3598">aws_s3_account_settings</text></g><!--class phantom_resource--><g id="elem_phantom_resource"><rect codeLine="29" fill="#3D176E" height="39.7891" id="phantom_resource" rx="2.5" ry="2.5" style="stroke:#000D19;stroke-width:0.5;" width="198" x="197.5" y="167.79"/><ellipse cx="212.5" cy="187.6845" fill="#ADD1B2" rx="11" ry="11" style="stroke:#181818;stroke-width:1.0;"/><path d="M215.4688,193.3252 Q214.8906,193.622 214.25,193.7627 Q213.6094,193.9189 212.9063,193.9189 Q210.4063,193.9189 209.0781,192.2783 Q207.7656,190.622 207.7656,187.497 Q207.7656,184.372 209.0781,182.7158 Q210.4063,181.0595 212.9063,181.0595 Q213.6094,181.0595 214.25,181.2158 Q214.9063,181.372 215.4688,181.6689 L215.4688,184.3877 Q214.8438,183.8095 214.25,183.5439 Q213.6563,183.2627 213.0313,183.2627 Q211.6875,183.2627 211,184.3408 Q210.3125,185.4033 210.3125,187.497 Q210.3125,189.5908 211,190.6689 Q211.6875,191.7314 213.0313,191.7314 Q213.6563,191.7314 214.25,191.4658 Q214.8438,191.1845 215.4688,190.6064 L215.4688,193.3252 Z " fill="#000000"/><text fill="#D9B8FF" font-family="Helvetica" font-size="17" lengthAdjust="spacing" textLength="156" x="231.5" y="193.5698">phantom_resource</text></g><!--class resource--><g id="elem_resource"><rect codeLine="32" fill="#3D176E" height="39.7891" id="resource" rx="2.5" ry="2.5" style="stroke:#000D19;stroke-width:0.5;" width="113" x="133" y="7"/><ellipse cx="148" cy="26.8945" fill="#ADD1B2" rx="11" ry="11" style="stroke:#181818;stroke-width:1.0;"/><path d="M150.9688,32.5352 Q150.3906,32.832 149.75,32.9727 Q149.1094,33.1289 148.4063,33.1289 Q145.9063,33.1289 144.5781,31.4883 Q143.2656,29.832 143.2656,26.707 Q143.2656,23.582 144.5781,21.9258 Q145.9063,20.2695 148.4063,20.2695 Q149.1094,20.2695 149.75,20.4258 Q150.4063,20.582 150.9688,20.8789 L150.9688,23.5977 Q150.3438,23.0195 149.75,22.7539 Q149.1563,22.4727 148.5313,22.4727 Q147.1875,22.4727 146.5,23.5508 Q145.8125,24.6133 145.8125,26.707 Q145.8125,28.8008 146.5,29.8789 Q147.1875,30.9414 148.5313,30.9414 Q149.1563,30.9414 149.75,30.6758 Q150.3438,30.3945 150.9688,29.8164 L150.9688,32.5352 Z " fill="#000000"/><text fill="#D9B8FF" font-family="Helvetica" font-size="17" lengthAdjust="spacing" textLength="71" x="167" y="32.7798">resource</text></g><!--reverse link resource to aws_resource--><g id="link_resource_aws_resource"><path codeLine="35" d="M166.9022,62.0646 C146.7222,92.5846 117.42,136.9 97.21,167.46 " fill="none" id="resource-backto-aws_resource" style="stroke:#FFAF37;stroke-width:2.0;"/><polygon fill="none" points="176.83,47.05,161.8974,58.7554,171.9071,65.3739,176.83,47.05" style="stroke:#FFAF37;stroke-width:2.0;"/></g><!--reverse link aws_resource to aws_s3_account_settings--><g id="link_aws_resource_aws_s3_account_settings"><path codeLine="36" d="M107.0978,222.8546 C127.2778,253.3746 156.58,297.69 176.79,328.25 " fill="none" id="aws_resource-backto-aws_s3_account_settings" style="stroke:#FFAF37;stroke-width:2.0;"/><polygon fill="none" points="97.17,207.84,102.0929,226.1639,112.1026,219.5454,97.17,207.84" style="stroke:#FFAF37;stroke-width:2.0;"/></g><!--reverse link phantom_resource to aws_s3_account_settings--><g id="link_phantom_resource_aws_s3_account_settings"><path codeLine="37" d="M273.5333,222.7686 C252.9733,253.2886 223.05,297.69 202.45,328.25 " fill="none" id="phantom_resource-backto-aws_s3_account_settings" style="stroke:#FFAF37;stroke-width:2.0;"/><polygon fill="none" points="283.59,207.84,268.5571,219.4163,278.5095,226.1208,283.59,207.84" style="stroke:#FFAF37;stroke-width:2.0;"/></g><!--reverse link resource to phantom_resource--><g id="link_resource_phantom_resource"><path codeLine="38" d="M212.4667,61.9786 C233.0267,92.4986 262.95,136.9 283.55,167.46 " fill="none" id="resource-backto-phantom_resource" style="stroke:#FFAF37;stroke-width:2.0;"/><polygon fill="none" points="202.41,47.05,207.4905,65.3308,217.4429,58.6263,202.41,47.05" style="stroke:#FFAF37;stroke-width:2.0;"/></g><!--SRC=[XP1BRm8n38Jl-oiYSKQ2eXQGUW6aghsWglIEJEAm4Rl9oZP5zF7V2wMbsIoFOsO-PyREdK65PILRLMAvGEACLyvNG52g4L7OJ48HIBMi1Tlhf-P3y78Lc4A9wX6BDnId8ILUSwTN7fdLJMIDGQ-M5DRU7BuN0iyx2xr4rAG0vf48kSLQC2fZXek1jIcPVjhgcMx_3XjO88FqYtGw7TCTfiZLg8jx7ucPUqVLZOys3OADces87-fYopqHbMmi-kUVxVWCnZY_LBUHzdBeH1wffizoC66pfoqK7CUm866GROMJnbOu71ZRFma_dOCplJ-TWWtF2JciIQFwoBAlIEVU7BJUZSgSKMJNYcEaoi5BA4-ErxNZw_wptMxNChDQWN__H7RM2BoC9rWwdNq3]--></g></svg>

<svg xmlns="http://www.w3.org/2000/svg" width="402" height="374" viewBox="0 0 402 374"><rect width="155" height="39.789" x="7" y="167.79" fill="#3D176E" rx="2.5" ry="2.5" style="stroke:#000d19;stroke-width:.5"/><circle cx="22" cy="187.685" r="11" fill="#ADD1B2" style="stroke:#181818;stroke-width:1"/><path d="M24.969 193.325q-.578.297-1.219.438-.64.156-1.344.156-2.5 0-3.828-1.64-1.312-1.657-1.312-4.782t1.312-4.781q1.328-1.656 3.828-1.656.703 0 1.344.156.656.156 1.219.453v2.719q-.625-.578-1.219-.844-.594-.281-1.219-.281-1.343 0-2.031 1.078-.687 1.062-.687 3.156t.687 3.172q.688 1.062 2.031 1.062.625 0 1.219-.265.594-.281 1.219-.86z"/><text x="41" y="193.57" fill="#D9B8FF" font-family="Helvetica" font-size="17" textLength="113">aws_resource</text><rect width="252" height="39.789" x="63.5" y="328.58" fill="#3D176E" rx="2.5" ry="2.5" style="stroke:#000d19;stroke-width:.5"/><circle cx="78.5" cy="348.474" r="11" fill="#ADD1B2" style="stroke:#181818;stroke-width:1"/><path d="M81.469 354.115q-.578.297-1.219.438-.64.156-1.344.156-2.5 0-3.828-1.64-1.312-1.657-1.312-4.782t1.312-4.781q1.328-1.656 3.828-1.656.703 0 1.344.156.656.156 1.219.453v2.719q-.625-.579-1.219-.844-.594-.281-1.219-.281-1.344 0-2.031 1.078-.687 1.062-.687 3.156t.687 3.172q.688 1.062 2.031 1.062.625 0 1.219-.265.594-.281 1.219-.86z"/><text x="97.5" y="354.36" fill="#D9B8FF" font-family="Helvetica" font-size="17" textLength="210">aws_s3_account_settings</text><rect width="198" height="39.789" x="197.5" y="167.79" fill="#3D176E" rx="2.5" ry="2.5" style="stroke:#000d19;stroke-width:.5"/><circle cx="212.5" cy="187.685" r="11" fill="#ADD1B2" style="stroke:#181818;stroke-width:1"/><path d="M215.469 193.325q-.578.297-1.219.438-.64.156-1.344.156-2.5 0-3.828-1.64-1.312-1.657-1.312-4.782t1.312-4.781q1.328-1.656 3.828-1.656.703 0 1.344.156.656.156 1.219.453v2.719q-.625-.578-1.219-.844-.594-.281-1.219-.281-1.344 0-2.031 1.078-.687 1.062-.687 3.156t.687 3.172q.688 1.062 2.031 1.062.625 0 1.219-.265.594-.281 1.219-.86z"/><text x="231.5" y="193.57" fill="#D9B8FF" font-family="Helvetica" font-size="17" textLength="156">phantom_resource</text><rect width="113" height="39.789" x="133" y="7" fill="#3D176E" rx="2.5" ry="2.5" style="stroke:#000d19;stroke-width:.5"/><circle cx="148" cy="26.895" r="11" fill="#ADD1B2" style="stroke:#181818;stroke-width:1"/><path d="M150.969 32.535q-.578.297-1.219.438-.64.156-1.344.156-2.5 0-3.828-1.64-1.312-1.657-1.312-4.782t1.312-4.781q1.328-1.656 3.828-1.656.703 0 1.344.156.656.156 1.219.453v2.719q-.625-.578-1.219-.844-.594-.281-1.219-.281-1.344 0-2.031 1.078-.687 1.062-.687 3.156t.687 3.172q.688 1.062 2.031 1.062.625 0 1.219-.265.594-.281 1.219-.86z"/><text x="167" y="32.78" fill="#D9B8FF" font-family="Helvetica" font-size="17" textLength="71">resource</text><path fill="none" d="M166.902 62.065C146.722 92.585 117.42 136.9 97.21 167.46m79.62-120.41-14.933 11.705 10.01 6.619zm-69.732 175.805c20.18 30.52 49.482 74.835 69.692 105.395M97.17 207.84l4.923 18.324 10.01-6.619zm176.363 14.929A498557 498557 0 0 1 202.45 328.25m81.14-120.41-15.033 11.576 9.952 6.705zM212.467 61.979c20.56 30.52 50.483 74.921 71.083 105.481M202.41 47.05l5.08 18.28 9.953-6.704z" style="stroke:#ffaf37;stroke-width:2"/></svg>
